svg/fluentui-system-icons/ic_fluent_eye_tracking_20_regular.svg

<svg width="20" height="20" viewBox="0 0 20 20" fill="none" xmlns="http://www.w3.org/2000/svg">
<path d="M3 4.5C3 3.67157 3.67157 3 4.5 3H7.5C7.77614 3 8 2.77614 8 2.5C8 2.22386 7.77614 2 7.5 2H4.5C3.11929 2 2 3.11929 2 4.5V7.5C2 7.77614 2.22386 8 2.5 8C2.77614 8 3 7.77614 3 7.5V4.5ZM3 15.5C3 16.3284 3.67157 17 4.5 17H7.5C7.77614 17 8 17.2239 8 17.5C8 17.7761 7.77614 18 7.5 18H4.5C3.11929 18 2 16.8807 2 15.5V12.5C2 12.2239 2.22386 12 2.5 12C2.77614 12 3 12.2239 3 12.5V15.5ZM15.5 3C16.3284 3 17 3.67157 17 4.5V7.5C17 7.77614 17.2239 8 17.5 8C17.7761 8 18 7.77614 18 7.5V4.5C18 3.11929 16.8807 2 15.5 2H12.5C12.2239 2 12 2.22386 12 2.5C12 2.77614 12.2239 3 12.5 3H15.5ZM17 15.5C17 16.3284 16.3284 17 15.5 17H12.5C12.2239 17 12 17.2239 12 17.5C12 17.7761 12.2239 18 12.5 18H15.5C16.8807 18 18 16.8807 18 15.5V12.5C18 12.2239 17.7761 12 17.5 12C17.2239 12 17 12.2239 17 12.5V15.5ZM7 11.5C7 9.84315 8.34315 8.5 10 8.5C11.6569 8.5 13 9.84315 13 11.5C13 13.1569 11.6569 14.5 10 14.5C8.34315 14.5 7 13.1569 7 11.5ZM10 9.5C8.89543 9.5 8 10.3954 8 11.5C8 12.6046 8.89543 13.5 10 13.5C11.1046 13.5 12 12.6046 12 11.5C12 10.3954 11.1046 9.5 10 9.5ZM4.94787 9.7226L4.94711 9.72404C4.82348 9.97071 4.52335 10.0706 4.2765 9.94721C4.02951 9.82372 3.9294 9.52338 4.0529 9.27639L4.50011 9.5C4.0529 9.27639 4.0533 9.27558 4.05343 9.27532L4.05411 9.27397L4.0559 9.27046L4.0612 9.26019C4.0655 9.25194 4.07136 9.24089 4.0788 9.22722C4.09367 9.19991 4.11489 9.16212 4.14273 9.11535C4.19837 9.02188 4.28063 8.89222 4.39164 8.7385C4.61336 8.43151 4.95187 8.02566 5.42471 7.62037C6.3757 6.80524 7.8628 6 10.0001 6C12.1374 6 13.6245 6.80524 14.5755 7.62037C15.0483 8.02566 15.3869 8.43151 15.6086 8.7385C15.7196 8.89222 15.8019 9.02188 15.8575 9.11535C15.8853 9.16212 15.9065 9.19991 15.9214 9.22722C15.9289 9.24089 15.9347 9.25194 15.939 9.26019L15.9443 9.27046L15.9461 9.27397L15.9473 9.27639L15.5001 9.49999C15.9435 9.2783 15.9474 9.27665 15.9473 9.27639C16.0708 9.52338 15.9707 9.82372 15.7237 9.94721C15.4772 10.0705 15.1776 9.971 15.0537 9.72511L15.0531 9.72404L15.0524 9.7226L15.0432 9.70539C15.0341 9.68877 15.0192 9.6621 14.9982 9.62684C14.9562 9.55624 14.89 9.45153 14.7979 9.324C14.6134 9.06849 14.3269 8.72434 13.9247 8.37963C13.1257 7.69476 11.8628 7 10.0001 7C8.13742 7 6.87452 7.69476 6.07551 8.37963C5.67334 8.72434 5.38686 9.06849 5.20232 9.324C5.11022 9.45153 5.04404 9.55624 5.00202 9.62684C4.98103 9.6621 4.96612 9.68877 4.95707 9.70539L4.94787 9.7226Z" fill="#212121"/>
</svg>

<svg xmlns="http://www.w3.org/2000/svg" width="20" height="20"><path d="M3 4.5A1.5 1.5 0 0 1 4.5 3h3a.5.5 0 0 0 0-1h-3A2.5 2.5 0 0 0 2 4.5v3a.5.5 0 0 0 1 0v-3Zm0 11A1.5 1.5 0 0 0 4.5 17h3a.5.5 0 0 1 0 1h-3A2.5 2.5 0 0 1 2 15.5v-3a.5.5 0 0 1 1 0v3ZM15.5 3A1.5 1.5 0 0 1 17 4.5v3a.5.5 0 0 0 1 0v-3A2.5 2.5 0 0 0 15.5 2h-3a.5.5 0 0 0 0 1h3ZM17 15.5a1.5 1.5 0 0 1-1.5 1.5h-3a.5.5 0 0 0 0 1h3a2.5 2.5 0 0 0 2.5-2.5v-3a.5.5 0 0 0-1 0v3Zm-10-4a3 3 0 1 1 6 0 3 3 0 0 1-6 0Zm3-2a2 2 0 1 0 0 4 2 2 0 0 0 0-4Zm-5.052.223v.001a.5.5 0 0 1-.895-.448L4.5 9.5a24.558 24.558 0 0 1-.447-.225l.001-.001.002-.004.005-.01a2.106 2.106 0 0 1 .082-.145 5.14 5.14 0 0 1 .249-.377A6.49 6.49 0 0 1 5.425 7.62C6.375 6.805 7.863 6 10 6s3.624.805 4.575 1.62c.473.406.812.812 1.034 1.119a5.13 5.13 0 0 1 .33.521l.005.01.002.004.001.002-.447.224.447-.224a.5.5 0 0 1-.893.45v-.002l-.002-.001-.009-.018a4.133 4.133 0 0 0-.245-.381 5.487 5.487 0 0 0-.873-.944C13.125 7.695 11.863 7 10 7s-3.125.695-3.924 1.38a5.49 5.49 0 0 0-.874.944 4.14 4.14 0 0 0-.245.381l-.01.018Z"/></svg>
